icons/networks/logos/sokol.svg

<svg width="101" height="20" viewBox="0 0 101 20" fill="none" xmlns="http://www.w3.org/2000/svg">
<path fill-rule="evenodd" clip-rule="evenodd" d="M90.7475 14.9926C90.6163 15.1125 90.4533 15.1726 90.2596 15.1726C90.0545 15.1726 89.8858 15.1125 89.7551 14.9926C89.6234 14.8723 89.5581 14.7037 89.5581 14.4863V3.58537C89.5581 3.36842 89.6234 3.19932 89.7551 3.079C89.8858 2.95916 90.0545 2.899 90.2596 2.899C90.4533 2.899 90.6163 2.95916 90.7475 3.079C90.8782 3.19932 90.9441 3.36842 90.9441 3.58537V14.4863C90.9441 14.7037 90.8782 14.8723 90.7475 14.9926ZM85.6056 14.6748C85.0012 15.0296 84.3054 15.2072 83.5181 15.2072C82.7313 15.2072 82.0383 15.0296 81.4391 14.6748C80.8404 14.3205 80.3785 13.8141 80.0531 13.1557C79.7282 12.4977 79.5657 11.7337 79.5657 10.864C79.5657 9.99432 79.7282 9.23074 80.0531 8.57232C80.3785 7.91437 80.8404 7.408 81.4391 7.05321C82.0383 6.69842 82.7313 6.52079 83.5181 6.52079C84.3054 6.52079 85.0012 6.69842 85.6056 7.05321C86.2101 7.408 86.6752 7.91437 87.0002 8.57232C87.3256 9.23074 87.4881 9.99432 87.4881 10.864C87.4881 11.7337 87.3256 12.4977 87.0002 13.1557C86.6752 13.8141 86.2101 14.3205 85.6056 14.6748ZM85.4005 8.50363C84.9557 7.94895 84.3281 7.6709 83.5181 7.6709C82.7081 7.6709 82.0809 7.94895 81.6362 8.50363C81.1914 9.05879 80.9687 9.84558 80.9687 10.864C80.9687 11.8943 81.188 12.6834 81.6276 13.2329C82.0663 13.7824 82.6972 14.0571 83.5181 14.0571C84.3395 14.0571 84.9699 13.7852 85.4091 13.2414C85.8482 12.6981 86.068 11.9056 86.068 10.864C86.068 9.84558 85.8453 9.05879 85.4005 8.50363ZM77.2631 15.1726C77.1177 15.1726 76.9666 15.1039 76.8098 14.9666L72.4254 11.1042V14.4863C72.4254 14.7037 72.361 14.8723 72.2321 14.9926C72.1033 15.1125 71.9436 15.1726 71.7532 15.1726C71.5519 15.1726 71.3866 15.1125 71.2577 14.9926C71.1289 14.8723 71.0645 14.7037 71.0645 14.4863V3.58537C71.0645 3.36842 71.1289 3.19932 71.2577 3.079C71.3866 2.95916 71.5519 2.899 71.7532 2.899C71.9436 2.899 72.1033 2.95916 72.2321 3.079C72.361 3.19932 72.4254 3.36842 72.4254 3.58537V10.5552L76.4403 6.79553C76.5744 6.65816 76.7259 6.58947 76.8936 6.58947C77.0618 6.58947 77.2072 6.65295 77.3304 6.77847C77.4535 6.90447 77.5151 7.05321 77.5151 7.22468C77.5151 7.41937 77.437 7.59132 77.2802 7.73958L73.971 10.7612L77.5994 13.9884C77.7785 14.1599 77.868 14.3432 77.868 14.5374C77.868 14.7094 77.8093 14.8581 77.6918 14.9841C77.5743 15.1096 77.4313 15.1726 77.2631 15.1726ZM65.7379 14.6748C65.1311 15.0296 64.4334 15.2072 63.6437 15.2072C62.8541 15.2072 62.1587 15.0296 61.5576 14.6748C60.957 14.3205 60.4937 13.8141 60.1674 13.1557C59.841 12.4977 59.6781 11.7337 59.6781 10.864C59.6781 9.99432 59.841 9.23074 60.1674 8.57232C60.4937 7.91437 60.957 7.408 61.5576 7.05321C62.1587 6.69842 62.8541 6.52079 63.6437 6.52079C64.4334 6.52079 65.1311 6.69842 65.7379 7.05321C66.3442 7.408 66.8108 7.91437 67.1367 8.57232C67.4631 9.23074 67.626 9.99432 67.626 10.864C67.626 11.7337 67.4631 12.4977 67.1367 13.1557C66.8108 13.8141 66.3442 14.3205 65.7379 14.6748ZM65.5318 8.50363C65.0856 7.94895 64.4561 7.6709 63.6437 7.6709C62.8309 7.6709 62.2014 7.94895 61.7552 8.50363C61.3089 9.05879 61.0858 9.84558 61.0858 10.864C61.0858 11.8943 61.3061 12.6834 61.7466 13.2329C62.1872 13.7824 62.8195 14.0571 63.6437 14.0571C64.4675 14.0571 65.0998 13.7852 65.5404 13.2414C65.9809 12.6981 66.2012 11.9056 66.2012 10.864C66.2012 9.84558 65.9781 9.05879 65.5318 8.50363ZM52.6543 9.99716C52.9366 10.1175 53.343 10.2349 53.8731 10.3491C54.657 10.5206 55.2647 10.7096 55.6972 10.9156C56.1292 11.1217 56.4376 11.3732 56.6218 11.6707C56.8061 11.9686 56.8985 12.3462 56.8985 12.8037C56.8985 13.5247 56.5929 14.1059 55.9824 14.5459C55.3713 14.9869 54.5646 15.2072 53.5623 15.2072C53.052 15.2097 52.5434 15.1462 52.0494 15.0182C51.5709 14.8922 51.1475 14.7151 50.7789 14.4863C50.5715 14.3489 50.4246 14.2201 50.3379 14.0997C50.2517 13.9794 50.2086 13.834 50.2086 13.6621C50.2086 13.5133 50.2517 13.3906 50.3379 13.2931C50.3799 13.2454 50.4319 13.2076 50.4903 13.1824C50.5486 13.1571 50.6117 13.1451 50.6752 13.1472C50.8135 13.1472 51.0148 13.2329 51.2801 13.4044C51.6259 13.6104 51.9688 13.7738 52.3089 13.8937C52.6486 14.014 53.0721 14.0742 53.5794 14.0742C54.2018 14.0742 54.6859 13.9657 55.0317 13.7478C55.377 13.5308 55.5499 13.2158 55.5499 12.8037C55.5499 12.5522 55.4869 12.349 55.36 12.1946C55.233 12.0397 55.0142 11.9028 54.7029 11.7825C54.3917 11.6622 53.9365 11.5395 53.3373 11.4135C52.3232 11.1961 51.597 10.9043 51.1593 10.5381C50.7212 10.1719 50.5023 9.67411 50.5023 9.04458C50.5023 8.55242 50.6406 8.11758 50.9173 7.73958C51.1939 7.36205 51.5766 7.06458 52.0669 6.84716C52.5562 6.62974 53.1128 6.52079 53.7352 6.52079C54.1843 6.52079 54.6191 6.58095 55.0402 6.70126C55.4362 6.81033 55.8125 6.98122 56.1553 7.20763C56.547 7.48237 56.7431 7.76847 56.7431 8.06595C56.7431 8.21468 56.6967 8.34068 56.6048 8.44347C56.5647 8.49183 56.5145 8.53075 56.4577 8.55744C56.4009 8.58414 56.3388 8.59795 56.2761 8.5979C56.1377 8.5979 55.9303 8.50126 55.6536 8.30611C55.3639 8.11771 55.0572 7.9569 54.7375 7.82579C54.4495 7.71116 54.0919 7.65384 53.6661 7.65384C53.1242 7.65384 52.6888 7.77416 52.3606 8.01432C52.0323 8.25495 51.868 8.57516 51.868 8.97589C51.868 9.22789 51.9286 9.43063 52.0494 9.58505C52.1706 9.73947 52.3719 9.87684 52.6543 9.99716ZM40.7368 19H20.8421L18.9474 12.3684H0.947368C0.0165789 12.3684 0 11.4211 0 11.4211V2.89474C0 1.08337 1.89474 1 1.89474 1H36.9474C38.0558 1 38.8421 3.84211 38.8421 3.84211L42.6316 17.1053C42.6316 17.1053 42.6538 19 40.7368 19ZM9.01468 3.83832H3.78474L5.18637 9.53437H10.4168L9.01468 3.83832ZM17.5453 3.83832H12.3148L13.7169 9.53437H18.9469L17.5453 3.83832ZM29.97 16.1532H32.2077L31.6066 14.2693H29.3689L29.97 16.1532ZM36.2293 3.83879H26.5287L29.1344 13.3139H38.835L36.2293 3.83879ZM39.1922 14.2693H36.9545L37.5556 16.1532H39.7933L39.1922 14.2693ZM18.4737 19H1.89474C0.0554211 19 0 17.1053 0 17.1053V14.2632H17.0526L18.4737 19Z" fill="#40BFB2"/>
</svg>

<svg viewBox="0 0 101 20" fill="none" xmlns="http://www.w3.org/2000/svg">
  <path fill-rule="evenodd" clip-rule="evenodd" d="M90.748 14.993a.697.697 0 0 1-.488.18.718.718 0 0 1-.505-.18c-.132-.12-.197-.29-.197-.507v-10.9c0-.218.065-.387.197-.507.13-.12.3-.18.505-.18.193 0 .356.06.487.18s.197.29.197.506v10.901c0 .218-.066.386-.197.507Zm-5.142-.318c-.605.355-1.3.532-2.088.532-.787 0-1.48-.177-2.079-.532a3.54 3.54 0 0 1-1.386-1.52c-.325-.657-.487-1.421-.487-2.291 0-.87.162-1.633.487-2.292a3.545 3.545 0 0 1 1.386-1.519c.6-.355 1.292-.532 2.08-.532.786 0 1.482.177 2.087.532.604.355 1.07.861 1.394 1.52.326.658.488 1.421.488 2.291 0 .87-.162 1.634-.488 2.292a3.521 3.521 0 0 1-1.394 1.519ZM85.4 8.504c-.444-.555-1.072-.833-1.882-.833-.81 0-1.437.278-1.882.833-.445.555-.667 1.342-.667 2.36 0 1.03.219 1.82.659 2.369.438.55 1.07.824 1.89.824.822 0 1.452-.272 1.891-.816.44-.543.659-1.335.659-2.377 0-1.018-.223-1.805-.668-2.36Zm-8.137 6.669c-.145 0-.296-.07-.453-.206l-4.385-3.863v3.382c0 .218-.064.386-.193.507a.676.676 0 0 1-.479.18.699.699 0 0 1-.495-.18c-.13-.12-.194-.29-.194-.507v-10.9c0-.218.065-.387.194-.507a.7.7 0 0 1 .495-.18c.19 0 .35.06.48.18.128.12.192.29.192.506v6.97l4.015-3.76a.62.62 0 0 1 .454-.206c.168 0 .313.064.436.19a.617.617 0 0 1 .185.446.69.69 0 0 1-.235.515l-3.309 3.021 3.628 3.227c.18.172.269.355.269.55 0 .171-.059.32-.176.446a.566.566 0 0 1-.429.189Zm-11.525-.498c-.607.355-1.305.532-2.094.532-.79 0-1.485-.177-2.086-.532a3.543 3.543 0 0 1-1.39-1.52c-.327-.657-.49-1.421-.49-2.291 0-.87.163-1.633.49-2.292a3.548 3.548 0 0 1 1.39-1.519c.6-.355 1.296-.532 2.086-.532.79 0 1.487.177 2.094.532a3.53 3.53 0 0 1 1.399 1.52c.326.658.489 1.421.489 2.291 0 .87-.163 1.634-.49 2.292a3.525 3.525 0 0 1-1.398 1.519Zm-.206-6.171c-.446-.555-1.076-.833-1.888-.833-.813 0-1.443.278-1.889.833-.446.555-.67 1.342-.67 2.36 0 1.03.221 1.82.662 2.369.44.55 1.072.824 1.897.824.824 0 1.456-.272 1.896-.816.44-.543.661-1.335.661-2.377 0-1.018-.223-1.805-.67-2.36ZM52.654 9.997c.283.12.689.238 1.22.352.783.172 1.39.36 1.823.567.432.206.74.457.925.755.184.298.276.675.276 1.133 0 .72-.305 1.302-.916 1.742-.61.44-1.417.661-2.42.661a5.917 5.917 0 0 1-1.513-.189 4.627 4.627 0 0 1-1.27-.532c-.208-.137-.354-.266-.441-.386a.73.73 0 0 1-.13-.438c0-.149.044-.271.13-.369a.43.43 0 0 1 .337-.146c.139 0 .34.086.605.257.346.206.689.37 1.029.49.34.12.763.18 1.27.18.623 0 1.107-.108 1.453-.326a1.05 1.05 0 0 0 .518-.944c0-.252-.063-.455-.19-.61-.127-.154-.346-.291-.657-.412-.311-.12-.767-.242-1.366-.368-1.014-.218-1.74-.51-2.178-.876-.438-.366-.657-.864-.657-1.493 0-.493.139-.927.415-1.305.277-.378.66-.675 1.15-.893.49-.217 1.046-.326 1.668-.326.45 0 .884.06 1.305.18.396.11.773.28 1.115.507.392.274.588.56.588.858a.547.547 0 0 1-.285.491.426.426 0 0 1-.182.04c-.138 0-.346-.096-.622-.29a5.527 5.527 0 0 0-.917-.481c-.288-.115-.645-.172-1.07-.172-.543 0-.978.12-1.306.36-.329.24-.493.561-.493.962 0 .252.06.455.181.609.122.154.323.292.605.412ZM40.737 19H20.842l-1.895-6.632h-18c-.93 0-.947-.947-.947-.947V2.895C0 1.083 1.895 1 1.895 1h35.052c1.109 0 1.895 2.842 1.895 2.842l3.79 13.263S42.654 19 40.737 19ZM9.015 3.838h-5.23l1.401 5.696h5.23L9.016 3.838Zm8.53 0h-5.23l1.402 5.696h5.23l-1.402-5.696ZM29.97 16.153h2.238l-.601-1.884h-2.238l.601 1.884ZM36.23 3.84h-9.701l2.605 9.475h9.701l-2.606-9.475Zm2.962 10.43h-2.237l.6 1.884h2.238l-.6-1.884ZM18.474 19H1.894C.056 19 0 17.105 0 17.105v-2.842h17.053L18.473 19Z" fill="#40BFB2"/>
</svg>
